icons/model-edit-24.svg

<?xml version="1.0" encoding="UTF-8"?><svg id="icons" xmlns="http://www.w3.org/2000/svg" viewBox="0 0 24 24"><defs><style>.cls-1{fill:none;}.cls-1,.cls-2{stroke-width:0px;}</style></defs><path class="cls-2" d="M14,15v-2h2.07562c.23358,1.59967,1.55237,2.83948,3.18628,2.95294l.05255-.05255c.18506-.18555.43604-.29004.69775-.29297-.00818-.24719.08514-.49194.25958-.6897-.245.07849-.50104.13226-.77179.13226-1.40601,0-2.54999-1.14349-2.54999-2.54999s1.14398-2.54999,2.54999-2.54999,2.54999,1.14349,2.54999,2.54999c0,.48669-.1441.93732-.38153,1.32452.07336-.01385.14246-.04327.21875-.04327.26416,0,.50439.10309.71124.25946.23309-.46643.37653-.98486.37653-1.54071,0-1.91589-1.55908-3.47504-3.47498-3.47504-1.74469,0-3.17938,1.29712-3.42438,2.97504h-2.07562v-2h-4.29327l-2.43115-2.43127c.43335-.57971.6994-1.29102.6994-2.06873,0-1.91589-1.55908-3.47504-3.47498-3.47504s-3.47498,1.55914-3.47498,3.47504,1.55908,3.47498,3.47498,3.47498c.77759,0,1.48889-.26599,2.06854-.69928l2.43146,2.4317v3.54407l-2.4541,2.4541c-.5755-.42273-1.27881-.6806-2.0459-.6806-1.91589,0-3.47498,1.55914-3.47498,3.47504s1.55908,3.47498,3.47498,3.47498,3.47498-1.55908,3.47498-3.47498c0-.78821-.27405-1.50763-.71808-2.09137l2.40863-2.40863h4.33447ZM10,11h3v3h-3v-3ZM4.5,8.04999c-1.40601,0-2.54999-1.14349-2.54999-2.54999s1.14398-2.54999,2.54999-2.54999,2.54999,1.14349,2.54999,2.54999-1.14398,2.54999-2.54999,2.54999ZM4.5,22.04999c-1.40601,0-2.54999-1.14349-2.54999-2.54999s1.14398-2.54999,2.54999-2.54999,2.54999,1.14349,2.54999,2.54999-1.14398,2.54999-2.54999,2.54999ZM23.16028,16.25391l-.73431.73431-1.41418-1.41418.73431-.73431c.07806-.07812.20471-.07812.28284,0l1.13135,1.13135c.07812.07812.07812.20471,0,.28284ZM14.83905,21.91327l1.24707,1.24713-2.08612.8396.83905-2.08673ZM20.02167,16.60718l1.41345,1.41449-4.18311,4.18359-1.414-1.41443,4.18365-4.18365Z"/><rect class="cls-1" width="24" height="24"/></svg>

<svg xmlns="http://www.w3.org/2000/svg" viewBox="0 0 24 24"><path d="M14 15v-2h2.076a3.464 3.464 0 0 0 3.186 2.953l.052-.053c.186-.185.436-.29.698-.293a.996.996 0 0 1 .26-.69 2.516 2.516 0 0 1-.772.133c-1.406 0-2.55-1.144-2.55-2.55s1.144-2.55 2.55-2.55 2.55 1.143 2.55 2.55c0 .487-.144.937-.382 1.325.074-.014.143-.044.22-.044.263 0 .504.103.71.26.234-.467.377-.985.377-1.541A3.48 3.48 0 0 0 19.5 9.025c-1.745 0-3.18 1.297-3.424 2.975H14v-2H9.707L7.276 7.569c.433-.58.699-1.291.699-2.069 0-1.916-1.56-3.475-3.475-3.475S1.025 3.585 1.025 5.5 2.585 8.975 4.5 8.975a3.44 3.44 0 0 0 2.069-.7L9 10.708v3.544l-2.454 2.455a3.443 3.443 0 0 0-2.046-.681c-1.916 0-3.475 1.56-3.475 3.475s1.56 3.475 3.475 3.475 3.475-1.56 3.475-3.475a3.44 3.44 0 0 0-.718-2.091L9.666 15H14zm-4-4h3v3h-3v-3zM4.5 8.05c-1.406 0-2.55-1.144-2.55-2.55S3.094 2.95 4.5 2.95 7.05 4.093 7.05 5.5 5.906 8.05 4.5 8.05zm0 14c-1.406 0-2.55-1.143-2.55-2.55s1.144-2.55 2.55-2.55 2.55 1.143 2.55 2.55-1.144 2.55-2.55 2.55zm18.66-5.796l-.734.734-1.414-1.414.734-.734a.2.2 0 0 1 .283 0l1.131 1.131a.2.2 0 0 1 0 .283zm-8.32 5.66l1.246 1.246L14 24l.839-2.087zm5.182-5.307l1.413 1.415-4.183 4.183-1.414-1.414 4.184-4.184z" stroke-width="0"/><path stroke-width="0" fill="none" d="M0 0h24v24H0z"/></svg>
